X:308
T:Scottish Schottis
R:polka 32 schottische
C:Ole Moraeus
S:Ian Dedic
M:4/4
L:1/8
Q:2/4=80
K:G
|:"G".G2B2 .G2B2|"D"(3:2:2c2B (3:2:2A2B "G"(3:2:2G2D "^(D)"(3:2:2G2B|\
"G".d2d2 .d2d2|"D"(3:2:2e2d (3:2:2^cd2 "G"(3:2:2B2G "^(E)"(3:2:2AB2|
"C"c2e2 (3:2:2a2g (3:2:2f2g|"G"(3:2:2d2B (3:2:2G2B d2-(3:2:2d2"^(B)"c-|\
"C"(3:2:2c2B (3:2:2A2c "G"(3:2:2B2A (3:2:2G2B|1"D".A2d2 d2(3DEF:|2"D".A2d2 "G"G2]
|:(3def|"G"g2(3:2:2d2B (3:2:2G2G "^(D)"(3:2:2Bd2|"G"g2 "^(E)"(3:2:2fg2 "C"e2- (3:2:2e2a-|\
(3:2:2a2g (3:2:2f2g "G"d2B2|"D"(3:2:2A2G (3:2:2A2B (3:2:2c2d (3:2:2e2f|
"G"(3:2:2f2g (3:2:2d2B (3:2:2G2G "^(D)"(3:2:2Bd2|"G"g2 "^(E)"(3:2:2fg2 "C"e2- (3:2:2e2c|\
"G/B"(3:2:2B2d "^(C)"(3:2:2c2B "D"(3:2:2A2c (3:2:2BA2|1"G".G2"D"B2"G"G2:|2"G".G2"D"B2"G"G2cBA|]

